svg/Outline/volume-mute.svg

<svg viewBox="0 0 24 24" xmlns="http://www.w3.org/2000/svg" width="24" height="24"><path d="M1.23 1.26a.9.9 0 0 1 1.27 0l20.2 20.2.06.06a.9.9 0 0 1-1.27 1.27l-.07-.06-20.2-20.2a.9.9 0 0 1 0-1.27m17.76 1.12a.9.9 0 0 1 1.2.03l.07.06.16.19c.76.95 1.4 2.27 1.85 3.84.49 1.67.74 3.57.74 5.5s-.25 3.83-.74 5.5q-.19.63-.4 1.21l-1.42-1.41.1-.3c.43-1.5.66-3.22.66-5s-.23-3.5-.67-5a10 10 0 0 0-1.41-3.06l-.23-.29-.06-.07a.9.9 0 0 1 .15-1.2M6.37 9.59l-.7.45-.26.14q-.52.25-1.06.37l-.36.07c-.35.05-.7.05-1.19.05v2.66c.5 0 .84 0 1.19.05l.36.07q.55.12 1.06.37l.25.14c.26.14.52.33.88.57l1.92 1.32a14 14 0 0 0 1.03.66l.02-.01.02-.16c.03-.23.03-.55.03-1.06v-2.5l1.8 1.8v.7q0 .72-.03 1.22c-.03.28-.08.63-.27.94l-.1.13c-.29.39-.72.65-1.2.72l-.2.03c-.44.02-.81-.16-1.1-.31q-.43-.26-1.02-.67l-1.92-1.32-.75-.5-.15-.08a3 3 0 0 0-.67-.24l-.23-.04a8 8 0 0 0-1.07-.03l-.33-.01q-.14 0-.32-.05l-.13-.05a1.4 1.4 0 0 1-.7-.64l-.07-.12a1 1 0 0 1-.1-.45v-3.62q0-.17.1-.44l.06-.13q.24-.45.71-.64L2 8.94q.18-.05.32-.06h.33c.63 0 .86 0 1.07-.04l.23-.04q.35-.08.67-.24l.15-.08q.11-.06.3-.2z"/><path d="M17.78 5.33a7.5 7.5 0 0 1 1.4 2.82l.12.45c.26 1.05.4 2.22.4 3.4v.5q-.06 1.53-.4 2.9l-.12.45q-.01.08-.04.14l-1.48-1.48q.19-.98.23-2.06l.01-.45c0-1.05-.12-2.07-.34-2.97l-.1-.38c-.3-1-.68-1.72-1.05-2.14zM14.04 8.1a.9.9 0 0 1 1.2.02l.07.06.12.15q.43.58.68 1.47l.07.25q.23.92.23 1.95v.29q-.02.45-.08.9l-1.75-1.75a6 6 0 0 0-.14-.96l-.06-.18q-.16-.57-.34-.8l-.1-.14-.05-.07a.9.9 0 0 1 .15-1.2M9.76 5.7c.48.08.91.34 1.2.73l.1.13c.19.31.24.66.27.94q.02.3.02.7L8.93 5.79q.29-.1.62-.1z"/><path d="M16.5 5.24a.9.9 0 0 1 1.28.1L16.4 6.5a.9.9 0 0 1 .1-1.27"/></svg>

<svg viewBox="0 0 24 24" xmlns="http://www.w3.org/2000/svg" width="24" height="24"><path d="M1.23 1.26A.9 .9 0 0 1 2.5 1.26L22.76 21.52A.9 .9 0 0 1 21.49 22.79L1.22 2.53A.9 .9 0 0 1 1.22 1.26M18.98 2.38A.9 .9 0 0 1 20.18 2.41L20.41 2.66C21.17 3.61 21.81 4.93 22.26 6.5C22.75 8.17 23 10.07 23 12C23 13.93 22.75 15.83 22.26 17.5Q22.07 18.13 21.86 18.71L20.44 17.3L20.54 17C20.97 15.5 21.2 13.78 21.2 12C21.2 10.22 20.97 8.5 20.53 7A10 10 0 0 0 19.12 3.94L18.83 3.58A.9 .9 0 0 1 18.98 2.38M6.37 9.59L5.41 10.18Q4.89 10.43 4.35 10.55L3.99 10.62C3.64 10.67 3.29 10.67 2.8 10.67L2.8 13.33C3.3 13.33 3.64 13.33 3.99 13.38L4.35 13.45Q4.9 13.57 5.41 13.82L5.66 13.96C5.92 14.1 6.18 14.29 6.54 14.53L8.46 15.85A14 14 0 0 0 9.49 16.51L9.53 16.34C9.56 16.11 9.56 15.79 9.56 15.28L9.56 12.78L11.36 14.58L11.36 15.28Q11.36 16 11.33 16.5C11.3 16.78 11.25 17.13 11.06 17.44L10.96 17.57C10.67 17.96 10.24 18.22 9.76 18.29L9.56 18.32C9.12 18.34 8.75 18.16 8.46 18.01Q8.03 17.75 7.44 17.34L4.62 15.44A3 3 0 0 0 3.95 15.2L3.72 15.16A8 8 0 0 0 2.65 15.13L2.32 15.12Q2.18 15.12 2 15.07L1.87 15.02A1.4 1.4 0 0 1 1.17 14.38L1.1 14.26A1 1 0 0 1 1 13.81L1 10.19Q1 10.02 1.1 9.75L1.16 9.62Q1.4 9.17 1.87 8.98L2 8.94Q2.18 8.89 2.32 8.88L2.65 8.88C3.28 8.88 3.51 8.88 3.72 8.84L3.95 8.8Q4.3 8.72 4.62 8.56L4.77 8.48Q4.88 8.42 5.07 8.28Z"/><path d="M17.78 5.33a7.5 7.5 0 0 1 1.4 2.82l.12.45c.26 1.05.4 2.22.4 3.4v.5q-.06 1.53-.4 2.9l-.12.45q-.01.08-.04.14l-1.48-1.48q.19-.98.23-2.06l.01-.45c0-1.05-.12-2.07-.34-2.97l-.1-.38c-.3-1-.68-1.72-1.05-2.14zM14.04 8.1A.9 .9 0 0 1 15.24 8.12L15.43 8.33Q15.86 8.91 16.11 9.8L16.18 10.05Q16.41 10.97 16.41 12L16.41 12.29Q16.39 12.74 16.33 13.19L14.58 11.44A6 6 0 0 0 14.44 10.48L14.38 10.3Q14.22 9.73 14.04 9.5L13.89 9.29A.9 .9 0 0 1 14.04 8.09M9.76 5.7c.48.08.91.34 1.2.73l.1.13c.19.31.24.66.27.94q.02.3.02.7L8.93 5.79q.29-.1.62-.1z"/><path d="M16.5 5.24a.9.9 0 0 1 1.28.1L16.4 6.5a.9.9 0 0 1 .1-1.27"/></svg>
